X: 916
T: Alistair Anderson's Fancy
R: reel
M: 4/4
K: Gmajor
|:(3DEF|G>BF>G E>GD3/2[C/c/]|[B,3/2B3/2]D/G>B c>ed>c|B>GD>G B>dc>B|A>GF>G A>c (3cBA|
G>BF>G (3EFG D3/2[C/c/]|[B,3/2B3/2]D/G>B c>e (3edc|B>g (3gfe d>BA>c|(3BcB G2 G2:|
F>G|A>cF>A D>FA>c|B>dG>B D>GB>d|^c>eg>e d>B=c>A|A>G (3GFE D2 F>G|
(3ABc F>A D>F A2|(3Bcd G>B D>G B2|^c>eg>e d>B (3ABc|B2 G2 G>DF>G|
A>c (3FGA D>F (3ABc|B>d (3GAB D>G (3Bcd|^c>eg>e B>dG>B|A>gf>e d>^c=c>A|
G>BF>G E>G D2|[B,3/2B3/2]D/G>B c>ed>c|B>gf>e (3ded (3cBA|(3GAG F2 G2||

